images/social/youtube.svg

<svg xmlns="http://www.w3.org/2000/svg" width="24" height="24" fill="none">
	<g clip-path="url(#a)" clip-rule="evenodd">
		<path stroke="#9399A7"
			d="M12 22.5c7.991 0 10.5-2.501 10.5-10.466C22.5 4.047 19.97 1.5 12 1.5 4.03 1.5 1.5 4.048 1.5 12.034 1.5 20 4.009 22.5 12 22.5Z" />
		<path fill="#9399A7" fill-rule="evenodd"
			d="M12.05 7c.484.001 4.396.019 5.42.299.2988.08363.5704.24433.7875.466.2171.22168.3721.49653.4495.797.258.98.289 2.898.293 3.344v.188c-.004.446-.035 2.364-.293 3.345-.0776.3004-.2327.5751-.4497.7968-.2171.2216-.4886.3824-.7873.4662-.956.26-4.427.293-5.28.297h-.38c-.853-.004-4.324-.036-5.28-.297-.29861-.084-.56998-.2448-.78703-.4664-.21706-.2216-.3722-.4963-.44997-.7966-.27-1.026-.291-3.075-.293-3.396v-.086c.002-.321.023-2.37.293-3.395.16-.615.635-1.1 1.237-1.263C7.554 7.019 11.466 7 11.95 7h.1ZM10 9.5v5l4.5-2.5L10 9.5Z" />
	</g>
	<defs>
		<clipPath id="a">
			<path fill="#fff" d="M0 0h24v24H0z" />
		</clipPath>
	</defs>
</svg>

<svg width="24" height="24" viewBox="0 0 24 24" fill="none" xmlns="http://www.w3.org/2000/svg">
<g clip-path="url(#clip0_179_9412)">
<path fill-rule="evenodd" clip-rule="evenodd" d="M12 22.5C19.991 22.5 22.5 19.999 22.5 12.034C22.5 4.047 19.97 1.5 12 1.5C4.03 1.5 1.5 4.048 1.5 12.034C1.5 20 4.009 22.5 12 22.5Z" stroke="#9399A7"/>
<path fill-rule="evenodd" clip-rule="evenodd" d="M12.05 7C12.534 7.001 16.446 7.019 17.47 7.299C17.7688 7.38263 18.0404 7.54333 18.2575 7.765C18.4746 7.98668 18.6296 8.26153 18.707 8.562C18.965 9.542 18.996 11.46 19 11.906V12.094C18.996 12.54 18.965 14.458 18.707 15.439C18.6294 15.7394 18.4743 16.0141 18.2573 16.2358C18.0402 16.4574 17.7687 16.6182 17.47 16.702C16.514 16.962 13.043 16.995 12.19 16.999H11.81C10.957 16.995 7.486 16.963 6.53 16.702C6.23139 16.618 5.96002 16.4572 5.74297 16.2356C5.52591 16.014 5.37077 15.7393 5.293 15.439C5.023 14.413 5.002 12.364 5 12.043V11.957C5.002 11.636 5.023 9.587 5.293 8.562C5.453 7.947 5.928 7.462 6.53 7.299C7.554 7.019 11.466 7 11.95 7H12.05ZM10 9.5V14.5L14.5 12L10 9.5Z" fill="#9399A7"/>
</g>
<defs>
<clipPath id="clip0_179_9412">
<rect width="24" height="24" fill="white"/>
</clipPath>
</defs>
</svg>
